usr/share/icons/big-icons/symbolic/actions/path-cut.svg

<svg xmlns="http://www.w3.org/2000/svg" viewBox="0 0 16 16">
  <defs id="defs3051">
    <style type="text/css" id="current-color-scheme">
      .ColorScheme-Text {
        color:#eff0f1;
      }
      .ColorScheme-Highlight {
        color:#3daee9;
      }
      </style>
  </defs>
  <path 
        style="fill:currentColor;fill-opacity:1;stroke:none"
        d="M9 2.03125A4.5 4.5 0 0 0 7.699219 2.378906L8.203 3.252A3.5 3.5 0 0 1 9 3.039063zM10 2.033V3.041A3.5 3.5 0 0 1 10.796875 3.251953L11.299 2.383A4.5 4.5 0 0 0 10 2.033203M6.833984 2.880859A4.5 4.5 0 0 0 5.880859 3.833984L6.754 4.336A3.5 3.5 0 0 1 7.333984 3.75zM12.166 2.881L11.664 3.754A3.5 3.5 0 0 1 12.25 4.333984L13.12 3.834A4.5 4.5 0 0 0 12.166016 2.880859M13.621 4.699L12.748 5.203A3.5 3.5 0 0 1 12.960938 6H13.969A4.5 4.5 0 0 0 13.621094 4.699219M5.382813 4.701172A4.5 4.5 0 0 0 5.0332 6H2V14H10V10.969A4.5 4.5 0 0 0 11.300781 10.621094L10.797 9.748A3.5 3.5 0 0 1 9.5 10 3.5 3.5 0 0 1 6.03906 7 3.5 3.5 0 0 1 6 6.5 3.5 3.5 0 0 1 6.04102 6 3.5 3.5 0 0 1 6.251953 5.203125zM3 7H5.03A4.5 4.5 0 0 0 9 10.966797V13H3zM12.958984 7A3.5 3.5 0 0 1 12.748047 7.796875L13.617 8.299A4.5 4.5 0 0 0 13.966797 7zM12.246094 8.664063A3.5 3.5 0 0 1 11.666016 9.25L12.166 10.119A4.5 4.5 0 0 0 13.11914 9.166016z"
        class="ColorScheme-Text"
        />
</svg>

<svg xmlns="http://www.w3.org/2000/svg" viewBox="0 0 16 16">
<defs id="defs3051">
<style id="current-color-scheme" type="text/css">
.ColorScheme-Text{color:#fcfcfc}
</style>
</defs>
<path d="M9 2.031a4.5 4.5 0 0 0-1.3.348l.503.873A3.5 3.5 0 0 1 9 3.039zm1 .002v1.008a3.5 3.5 0 0 1 .797.211l.502-.869A4.5 4.5 0 0 0 10 2.033m-3.166.848a4.5 4.5 0 0 0-.953.953l.873.502a3.5 3.5 0 0 1 .58-.586zm5.332 0-.502.873a3.5 3.5 0 0 1 .586.58l.87-.5a4.5 4.5 0 0 0-.954-.953m1.455 1.818-.873.504a3.5 3.5 0 0 1 .213.797h1.008a4.5 4.5 0 0 0-.348-1.3m-8.238 0a4.5 4.5 0 0 0-.35 1.3H2v8h8v-3.031a4.5 4.5 0 0 0 1.3-.348l-.503-.873A3.5 3.5 0 0 1 9.5 10a3.5 3.5 0 0 1-3.46-3A3.5 3.5 0 0 1 6 6.5a3.5 3.5 0 0 1 .041-.5 3.5 3.5 0 0 1 .211-.797zM3 7h2.03A4.5 4.5 0 0 0 9 10.967V13H3zm9.959 0a3.5 3.5 0 0 1-.211.797l.869.502A4.5 4.5 0 0 0 13.967 7zm-.713 1.664a3.5 3.5 0 0 1-.58.586l.5.869a4.5 4.5 0 0 0 .953-.953z" class="ColorScheme-Text" style="fill:currentColor;fill-opacity:1;stroke:none"/>
</svg>
